src/assets/images/global-drive.svg

<svg width="77" height="49" viewBox="0 0 77 49" fill="none" xmlns="http://www.w3.org/2000/svg">
<g style="mix-blend-mode:luminosity" clip-path="url(#clip0)">
<path fill-rule="evenodd" clip-rule="evenodd" d="M7.33197 19.0276V8.67896H0V19.0324C0.258101 23.6605 2.23687 27.8161 5.3054 30.8745C8.59379 34.157 13.1488 36.1896 18.1865 36.1991V36.223L19.0994 36.2277L31.0151 36.2611C28.2047 35.3832 24.6438 33.3937 21.929 28.9326L19.0947 28.9231H18.2104V28.8801V28.8944C15.204 28.8944 12.4796 27.6682 10.4961 25.6882C8.74674 23.942 7.58529 21.6136 7.33197 19.0276Z" fill="url(#paint0_linear)"/>
<path fill-rule="evenodd" clip-rule="evenodd" d="M76.9679 36.0654C65.6449 36.0559 54.126 36.0797 41.2879 36.0654C40.0356 36.0177 38.3293 35.9843 37.0675 35.846C31.3892 35.2209 27.6802 32.3439 25.6967 30.2732C24.4874 29.0136 23.5458 27.5918 22.7715 25.9982C21.6197 23.627 20.9744 20.9647 20.9648 18.1449C20.9648 18.0829 20.9648 18.1115 20.9648 18.0685C20.9744 13.0684 22.9962 8.55482 26.2655 5.29133C29.377 2.1853 33.6309 0.205258 38.358 0.0144105C39.0032 -0.0142166 39.6532 -0.00467422 40.3033 0.0382664C44.8439 0.334079 48.9162 2.28549 51.9273 5.29133C55.1106 8.46894 57.118 12.8393 57.2232 17.6869C57.228 17.9684 57.228 18.2499 57.2232 18.5266C57.1515 21.5992 56.3198 24.481 54.9051 26.9859H45.212C45.7568 26.609 46.2683 26.1843 46.7367 25.7167C48.4382 24.0182 49.5758 21.7662 49.8482 19.2661C49.9295 18.5314 49.9295 17.6964 49.853 16.9616C49.5901 14.4472 48.443 12.1809 46.7367 10.4728C45.0016 8.7409 42.6979 7.59581 40.136 7.34771C39.4382 7.28091 38.6495 7.28569 37.9517 7.36202C35.4376 7.62921 33.172 8.76952 31.4657 10.4728C29.702 12.2334 28.5406 14.5856 28.3255 17.2002C28.2634 17.9063 28.2825 18.6983 28.3685 19.3997C28.6696 21.8473 29.7976 24.0516 31.4657 25.7215C33.3107 27.5632 35.8104 28.7464 38.573 28.88C54.3602 28.8896 64.1823 28.8466 76.9727 28.88L76.9679 36.0654Z" fill="url(#paint1_linear)"/>
<path fill-rule="evenodd" clip-rule="evenodd" d="M0.105469 42.8884C0.105469 41.8244 0.440044 41.0038 1.10919 40.4264C1.77834 39.8444 2.73427 39.5533 3.98654 39.5533C4.60789 39.5533 5.24836 39.6201 5.91751 39.7585C6.58188 39.8968 7.08852 40.0686 7.42788 40.269V46.2043C7.42788 47.1586 7.11242 47.8647 6.48151 48.318C5.8506 48.7712 4.99982 49.0003 3.91962 49.0003C2.72471 49.0003 1.82136 48.8571 1.20479 48.5709C0.592992 48.2894 0.287095 47.8218 0.287095 47.1634C0.287095 47.0441 0.325332 46.9534 0.397027 46.8771C0.473501 46.8007 0.569094 46.7673 0.683805 46.7673H1.63973C1.94563 46.7673 2.19417 46.8819 2.38058 47.1061C2.61478 47.3971 3.07363 47.545 3.76189 47.545C4.27809 47.545 4.65091 47.4449 4.87077 47.2492C5.09063 47.0536 5.20535 46.7053 5.20535 46.2043V45.9038C4.52186 46.0803 3.88138 46.1662 3.28393 46.1662C2.33278 46.1662 1.56804 45.8751 0.984923 45.2883C0.397027 44.7014 0.105469 43.8999 0.105469 42.8884ZM2.32322 42.8884C2.32322 44.0382 2.8203 44.6155 3.80969 44.6155C4.22074 44.6155 4.68436 44.5535 5.20057 44.4247V41.2423C4.83253 41.1469 4.37847 41.0992 3.84315 41.104C2.83464 41.0992 2.32322 41.6956 2.32322 42.8884ZM9.00516 46.3141V37.9168C9.00516 37.7975 9.0434 37.7021 9.11509 37.6305C9.19157 37.5542 9.28238 37.5208 9.39709 37.5208H10.831C10.9457 37.5208 11.0413 37.559 11.113 37.6305C11.1847 37.7069 11.2229 37.8023 11.2229 37.9168V46.3141C11.2229 46.4286 11.1847 46.524 11.113 46.5956C11.0365 46.6672 10.9457 46.7053 10.831 46.7053H9.39709C9.28238 46.7053 9.18679 46.6672 9.11509 46.5956C9.0434 46.524 9.00516 46.4286 9.00516 46.3141ZM13.3976 45.9133C12.7333 45.2978 12.3987 44.3913 12.3987 43.1937C12.3987 41.9962 12.7333 41.0896 13.3976 40.4742C14.0668 39.8587 15.0227 39.5533 16.275 39.5533C17.5273 39.5533 18.488 39.8587 19.1571 40.4742C19.8263 41.0896 20.1561 41.9962 20.1561 43.1937C20.1561 44.3913 19.8215 45.2978 19.1571 45.9133C18.4927 46.5288 17.532 46.8341 16.275 46.8341C15.0227 46.8341 14.0668 46.524 13.3976 45.9133ZM15.0227 41.5238C14.7551 41.8721 14.6212 42.4256 14.6212 43.1842C14.6212 43.9428 14.7551 44.4963 15.0227 44.8493C15.2856 45.1976 15.7062 45.3742 16.275 45.3742C16.8485 45.3742 17.2692 45.1976 17.5368 44.8493C17.8045 44.4963 17.9383 43.9428 17.9383 43.1842C17.9383 42.4208 17.8045 41.8673 17.5368 41.5238C17.2692 41.1755 16.8485 41.0038 16.275 41.0038C15.7062 41.0038 15.2856 41.1803 15.0227 41.5238ZM21.3414 37.912C21.3414 37.7928 21.3796 37.6973 21.4561 37.6258C21.5278 37.5494 21.6234 37.516 21.7381 37.516H23.172C23.2867 37.516 23.3823 37.5542 23.454 37.6258C23.5257 37.7021 23.5639 37.7975 23.5639 37.912V39.8778C24.257 39.6583 24.8783 39.5533 25.4184 39.5533C26.4508 39.5533 27.2729 39.8682 27.88 40.4932C28.4918 41.1183 28.7929 42.02 28.7929 43.1985C28.7929 45.627 27.4546 46.8341 24.7828 46.8341C24.1614 46.8341 23.5161 46.7673 22.8518 46.6242C22.1874 46.4858 21.6808 46.3141 21.3414 46.1137V37.912ZM23.5592 41.3568V45.1356C23.9272 45.2358 24.3813 45.2835 24.9166 45.2835C25.5188 45.2835 25.949 45.1213 26.1975 44.7921C26.4508 44.4629 26.5751 43.9333 26.5751 43.1985C26.5751 42.4637 26.4508 41.9341 26.2023 41.6002C25.9585 41.2709 25.5427 41.104 24.9548 41.104C24.5772 41.0992 24.1136 41.1851 23.5592 41.3568ZM30.4944 46.2425C29.9256 45.8513 29.6436 45.2931 29.6436 44.5774C29.6436 43.8569 29.9256 43.3082 30.4944 42.9265C31.0584 42.5401 31.7897 42.3492 32.6835 42.3492H34.8057C34.8057 41.8483 34.7005 41.5 34.4902 41.3043C34.2847 41.1087 33.9501 41.0085 33.496 41.0085C32.8986 41.0085 32.4828 41.1517 32.2438 41.4427C32.0574 41.667 31.8136 41.7815 31.5077 41.7815H30.5518C30.4371 41.7815 30.3415 41.7433 30.2698 41.6717C30.1933 41.5954 30.1598 41.5047 30.1598 41.395C30.1598 40.164 31.3213 39.5533 33.6538 39.5533C34.6718 39.5533 35.4891 39.7823 36.1057 40.2356C36.7223 40.6889 37.0282 41.395 37.0282 42.3492V46.3141C37.0282 46.4286 36.99 46.524 36.9183 46.5956C36.8466 46.6672 36.751 46.7053 36.6363 46.7053H35.3983C35.2836 46.7053 35.1928 46.6672 35.1163 46.5956C35.0399 46.5192 35.0064 46.4286 35.0064 46.3141V46.1185C34.3277 46.6051 33.5582 46.8437 32.6835 46.8341C31.7897 46.8341 31.0584 46.6385 30.4944 46.2425ZM31.8614 44.5774C31.8614 44.8112 31.9522 45.002 32.1291 45.1547C32.3107 45.3074 32.564 45.3789 32.8938 45.3789C33.5534 45.3789 34.1891 45.1833 34.8009 44.8016V43.7997H32.8364C32.5353 43.7997 32.3011 43.8712 32.1291 44.0191C31.9522 44.1671 31.8614 44.3531 31.8614 44.5774ZM38.6103 46.3141V37.9168C38.6103 37.7975 38.6485 37.7021 38.725 37.6305C38.8014 37.5542 38.8923 37.5208 39.007 37.5208H40.4409C40.5556 37.5208 40.6512 37.559 40.7229 37.6305C40.7945 37.7069 40.8328 37.8023 40.8328 37.9168V46.3141C40.8328 46.4286 40.7945 46.524 40.7229 46.5956C40.6464 46.6672 40.5508 46.7053 40.4409 46.7053H39.007C38.8923 46.7053 38.7967 46.6672 38.725 46.5956C38.6485 46.524 38.6103 46.4286 38.6103 46.3141ZM42.0038 43.1937C42.0038 42.0153 42.3097 41.1135 42.9167 40.4885C43.5285 39.8634 44.3506 39.5486 45.383 39.5486C45.9279 39.5486 46.5445 39.6583 47.2375 39.873V37.9073C47.2375 37.788 47.2757 37.6926 47.3474 37.621C47.4239 37.5447 47.5147 37.5113 47.6294 37.5113H49.0585C49.178 37.5113 49.2688 37.5494 49.3453 37.621C49.4218 37.6973 49.46 37.7928 49.46 37.9073V46.3045C49.46 46.4191 49.4218 46.5145 49.3453 46.586C49.2688 46.6576 49.1733 46.6958 49.0585 46.6958H47.8302C47.7155 46.6958 47.6199 46.6576 47.5482 46.586C47.4765 46.5097 47.4382 46.4191 47.4382 46.3045V46.1041C46.7691 46.5908 46.0283 46.8294 45.2109 46.8246C44.2598 46.8246 43.4855 46.5097 42.8928 45.8799C42.3001 45.2549 42.0038 44.3627 42.0038 43.1937ZM44.2263 43.1937C44.2263 43.919 44.341 44.4486 44.5705 44.7825C44.8047 45.1165 45.1823 45.2835 45.708 45.2835C46.1095 45.2835 46.6209 45.0927 47.2375 44.7062V41.3568C46.6831 41.1803 46.2194 41.0992 45.8419 41.0992C45.254 41.0992 44.8381 41.2662 44.5944 41.5954C44.3506 41.9294 44.2263 42.4637 44.2263 43.1937ZM51.0325 46.3141V40.0782C51.0325 39.9589 51.0708 39.8634 51.1473 39.7919C51.2237 39.7155 51.3145 39.6821 51.4292 39.6821H52.8631C52.9778 39.6821 53.0734 39.7203 53.1451 39.7919C53.2168 39.8682 53.2551 39.9589 53.2551 40.0734V40.4694C53.69 40.1593 54.1106 39.9255 54.5169 39.7776C54.9232 39.6249 55.4489 39.5533 56.1037 39.5533C56.2184 39.5533 56.3188 39.5915 56.3905 39.6678C56.467 39.7394 56.5004 39.83 56.5004 39.9398V40.9036C56.5004 41.0181 56.467 41.1087 56.3905 41.1803C56.314 41.2519 56.2184 41.2853 56.1037 41.2853H55.8982C55.7978 41.2853 55.6353 41.2805 55.4155 41.2662C55.1908 41.2519 55.0235 41.2471 54.904 41.2471C54.3257 41.2471 53.7761 41.5668 53.2503 42.2013V46.3141C53.2503 46.4286 53.2121 46.5288 53.1404 46.5956C53.0639 46.6672 52.9731 46.7053 52.8584 46.7053H51.4245C51.3098 46.7053 51.2142 46.6672 51.1425 46.5956C51.0708 46.524 51.0325 46.4286 51.0325 46.3141ZM57.4229 38.3653V38.1458C57.4229 37.9168 57.4898 37.7307 57.6189 37.5924C57.7479 37.454 57.9296 37.3872 58.159 37.3872H58.9524C59.177 37.3872 59.3587 37.454 59.4925 37.5876C59.6216 37.7212 59.6885 37.9073 59.6885 38.1411V38.3605C59.6885 38.5943 59.6216 38.7804 59.4925 38.914C59.3634 39.0476 59.1818 39.1191 58.9524 39.1191H58.159C57.9343 39.1191 57.7527 39.0523 57.6189 38.914C57.4898 38.7804 57.4229 38.5943 57.4229 38.3653ZM57.4468 46.3141V40.269C57.4468 40.1497 57.4851 40.0591 57.5615 39.9875C57.638 39.9159 57.7288 39.8825 57.8435 39.8825H59.2774C59.3921 39.8825 59.4877 39.9207 59.5594 39.9923C59.6311 40.0638 59.6693 40.1593 59.6693 40.269V46.3189C59.6693 46.4334 59.6311 46.5288 59.5594 46.6004C59.4829 46.6719 59.3921 46.7101 59.2774 46.7101H57.8435C57.724 46.7101 57.6332 46.6719 57.5615 46.6004C57.4851 46.524 57.4468 46.4334 57.4468 46.3141ZM60.654 39.8444C60.7018 39.7346 60.8021 39.6774 60.9503 39.6774H62.1787C62.3651 39.6774 62.5371 39.7299 62.6996 39.8348C62.8621 39.9398 62.9769 40.0734 63.0438 40.2404L64.7979 44.2338L66.5472 40.2404C66.6142 40.0734 66.7289 39.9398 66.8914 39.8348C67.0539 39.7299 67.226 39.6774 67.4124 39.6774H68.6551C68.8032 39.6774 68.8988 39.7299 68.9466 39.8444C68.9705 39.8873 68.9753 39.9398 68.9705 39.9923C68.9705 40.0686 68.9514 40.1545 68.9132 40.2404L66.1362 46.1375C66.0597 46.3045 65.9402 46.4381 65.7729 46.5431C65.6057 46.6481 65.4384 46.7005 65.2615 46.7005H64.3199C64.1431 46.7005 63.9758 46.6481 63.8133 46.5431C63.6508 46.4381 63.5313 46.3045 63.4548 46.1375L60.6826 40.2404C60.6396 40.1449 60.6205 40.0638 60.6205 39.9923C60.6205 39.9398 60.6301 39.8921 60.654 39.8444ZM70.4904 45.9133C69.8309 45.2978 69.5011 44.4008 69.5011 43.2176C69.5011 42.0343 69.8309 41.1278 70.4952 40.498C71.1596 39.8682 72.0773 39.5533 73.2483 39.5533C74.4289 39.5533 75.3513 39.8682 76.0062 40.4932C76.6657 41.1183 76.9955 42.02 76.9955 43.1937V43.5707C76.9955 43.6899 76.9573 43.7854 76.8808 43.8617C76.8091 43.938 76.7135 43.9762 76.5988 43.9762H71.7666C71.8096 44.4676 71.9578 44.8207 72.2159 45.045C72.4788 45.2692 72.8707 45.3789 73.4108 45.3789C74.013 45.3789 74.4337 45.2358 74.6679 44.9495C74.8495 44.7253 75.098 44.606 75.4039 44.6012H76.3598C76.4746 44.6012 76.5702 44.6394 76.6466 44.7205C76.7231 44.8016 76.7613 44.9018 76.7613 45.0259C76.7613 46.233 75.5903 46.8389 73.2483 46.8294C72.0677 46.8341 71.15 46.5288 70.4904 45.9133ZM71.7571 42.521H74.7395C74.6965 41.5095 74.2042 41.0038 73.2531 41.0038C72.3019 41.0038 71.8049 41.5095 71.7571 42.521Z" fill="url(#paint2_linear)"/>
</g>
<defs>
<linearGradient id="paint0_linear" x1="-4.12445" y1="15.0853" x2="69.5845" y2="52.0052" gradientUnits="userSpaceOnUse">
<stop stop-color="#4089C3"/>
<stop offset="1" stop-color="#17ABE1"/>
</linearGradient>
<linearGradient id="paint1_linear" x1="3.35034" y1="0.16475" x2="77.0593" y2="37.0846" gradientUnits="userSpaceOnUse">
<stop stop-color="#4089C3"/>
<stop offset="1" stop-color="#17ABE1"/>
</linearGradient>
<linearGradient id="paint2_linear" x1="-7.34742" y1="21.5205" x2="66.3616" y2="58.4403" gradientUnits="userSpaceOnUse">
<stop stop-color="#4089C3"/>
<stop offset="1" stop-color="#17ABE1"/>
</linearGradient>
<clipPath id="clip0">
<rect width="77" height="49" fill="white"/>
</clipPath>
</defs>
</svg>

<svg width="77" height="49" fill="none" xmlns="http://www.w3.org/2000/svg"><g style="mix-blend-mode:luminosity" clip-path="url(#clip0)" fill-rule="evenodd" clip-rule="evenodd"><path d="M7.332 19.028V8.679H0v10.353a18.1 18.1 0 005.305 11.843 18.221 18.221 0 0012.881 5.324v.024l.913.005 11.916.033c-2.81-.878-6.371-2.867-9.086-7.328l-2.834-.01h-.885v-.043.014c-3.006 0-5.73-1.226-7.714-3.206a10.909 10.909 0 01-3.164-6.66z" fill="url(#paint0_linear)"/><path d="M76.968 36.065c-11.323-.01-22.842.015-35.68 0-1.252-.047-2.959-.08-4.22-.219a18.394 18.394 0 01-11.371-5.573c-1.21-1.26-2.151-2.681-2.925-4.275a18.057 18.057 0 01-1.807-7.853v-.076c.01-5 2.031-9.514 5.3-12.778A18.105 18.105 0 0138.358.014a17.793 17.793 0 011.945.024 18.076 18.076 0 0111.624 5.253 18.019 18.019 0 015.296 13.236 18.01 18.01 0 01-2.318 8.459h-9.693a11.085 11.085 0 001.525-1.27 10.76 10.76 0 003.111-6.45 11.3 11.3 0 00.005-2.304c-.263-2.515-1.41-4.781-3.116-6.49a10.806 10.806 0 00-6.601-3.124 10.798 10.798 0 00-8.67 3.125 10.742 10.742 0 00-3.097 8.927 10.817 10.817 0 003.097 6.322 10.789 10.789 0 007.107 3.158c15.787.01 25.61-.033 38.4 0l-.005 7.185z" fill="url(#paint1_linear)"/><path d="M.105 42.888c0-1.064.335-1.884 1.004-2.462.67-.582 1.625-.873 2.878-.873a9.5 9.5 0 011.93.206c.665.138 1.172.31 1.51.51v5.935c0 .955-.315 1.66-.945 2.114C5.85 48.771 5 49 3.92 49c-1.195 0-2.099-.143-2.715-.43-.612-.28-.918-.748-.918-1.407 0-.119.038-.21.11-.286a.386.386 0 01.287-.11h.956a.92.92 0 01.74.34c.235.29.694.438 1.382.438.516 0 .889-.1 1.109-.296.22-.195.334-.544.334-1.045v-.3a7.697 7.697 0 01-1.921.262c-.951 0-1.716-.29-2.3-.878-.587-.587-.879-1.388-.879-2.4zm2.218 0c0 1.15.497 1.727 1.487 1.727.41 0 .874-.062 1.39-.19v-3.183c-.367-.095-.822-.143-1.357-.138-1.008-.005-1.52.592-1.52 1.784zm6.682 3.426v-8.397a.375.375 0 01.392-.396h1.434c.115 0 .21.038.282.11a.4.4 0 01.11.286v8.397c0 .115-.038.21-.11.282a.394.394 0 01-.282.11H9.397a.386.386 0 01-.282-.11.385.385 0 01-.11-.282zm4.393-.4c-.665-.616-1-1.523-1-2.72 0-1.198.335-2.104 1-2.72.669-.615 1.625-.92 2.877-.92 1.252 0 2.213.305 2.882.92.67.616 1 1.522 1 2.72 0 1.197-.335 2.104-1 2.72-.664.615-1.625.92-2.882.92-1.252 0-2.208-.31-2.877-.92zm1.625-4.39c-.268.348-.402.902-.402 1.66 0 .759.134 1.312.402 1.665.263.349.683.525 1.252.525.574 0 .994-.176 1.262-.525.268-.353.401-.906.401-1.665 0-.763-.133-1.317-.401-1.66-.268-.349-.688-.52-1.262-.52-.569 0-.99.176-1.252.52zm6.318-3.612c0-.12.039-.215.115-.286a.368.368 0 01.282-.11h1.434c.115 0 .21.038.282.11.072.076.11.172.11.286v1.966c.693-.22 1.314-.325 1.854-.325 1.033 0 1.855.315 2.462.94.612.625.913 1.527.913 2.706 0 2.428-1.338 3.635-4.01 3.635a9.16 9.16 0 01-1.931-.21c-.665-.138-1.171-.31-1.51-.51v-8.202zm2.218 3.445v3.779c.368.1.822.147 1.358.147.602 0 1.032-.162 1.28-.49.254-.33.378-.86.378-1.594 0-.735-.124-1.265-.373-1.599-.244-.33-.66-.496-1.247-.496-.378-.005-.841.081-1.396.253zm6.935 4.886c-.568-.392-.85-.95-.85-1.666 0-.72.282-1.269.85-1.65.564-.387 1.296-.578 2.19-.578h2.122c0-.5-.105-.849-.316-1.045-.205-.195-.54-.296-.994-.296-.597 0-1.013.144-1.252.435a.91.91 0 01-.736.339h-.956a.386.386 0 01-.282-.11.37.37 0 01-.11-.277c0-1.231 1.161-1.842 3.494-1.842 1.018 0 1.835.23 2.452.683.616.453.922 1.159.922 2.113v3.965c0 .115-.038.21-.11.282a.386.386 0 01-.282.11h-1.238a.374.374 0 01-.392-.391v-.197c-.678.487-1.448.726-2.322.716-.894 0-1.626-.196-2.19-.592zm1.367-1.666c0 .234.091.425.268.578.182.152.435.224.765.224.66 0 1.295-.196 1.907-.577V43.8h-1.965c-.3 0-.535.071-.707.22a.7.7 0 00-.268.557zm6.75 1.737v-8.397c0-.12.038-.215.114-.287a.375.375 0 01.282-.11h1.434c.115 0 .21.039.282.11.072.077.11.172.11.287v8.397c0 .115-.038.21-.11.282a.402.402 0 01-.282.11h-1.434a.386.386 0 01-.397-.392zm3.393-3.12c0-1.179.306-2.08.913-2.706.611-.625 1.434-.94 2.466-.94.545 0 1.161.11 1.854.325v-1.966a.375.375 0 01.392-.396h1.43c.119 0 .21.038.286.11a.388.388 0 01.115.286v8.398a.37.37 0 01-.115.281.405.405 0 01-.286.11H47.83a.386.386 0 01-.282-.11.392.392 0 01-.11-.282v-.2a3.651 3.651 0 01-2.227.72c-.951 0-1.725-.314-2.318-.944-.593-.625-.89-1.517-.89-2.686zm2.222 0c0 .725.115 1.255.345 1.588.234.335.611.502 1.137.502.401 0 .913-.191 1.53-.578v-3.35c-.555-.176-1.019-.257-1.396-.257-.588 0-1.004.167-1.248.496-.243.334-.368.869-.368 1.599zm6.806 3.12v-6.236c0-.12.039-.215.115-.286a.374.374 0 01.282-.11h1.434c.115 0 .21.038.282.11a.39.39 0 01.11.281v.396c.435-.31.856-.544 1.262-.691.406-.153.932-.225 1.587-.225.114 0 .215.039.287.115.076.071.11.162.11.272v.964a.356.356 0 01-.11.276.402.402 0 01-.287.105h-.206c-.1 0-.263-.004-.483-.019a8.226 8.226 0 00-.511-.019c-.578 0-1.128.32-1.654.954v4.113a.377.377 0 01-.11.282.394.394 0 01-.282.11h-1.433a.386.386 0 01-.282-.11.385.385 0 01-.11-.282zm6.39-7.949v-.22c0-.228.068-.414.197-.553.129-.138.31-.205.54-.205h.793c.225 0 .407.067.54.2.13.134.197.32.197.554v.22c0 .233-.067.42-.197.553-.129.134-.31.205-.54.205h-.793c-.225 0-.406-.067-.54-.205-.13-.134-.196-.32-.196-.549zm.025 7.95v-6.046c0-.12.038-.21.114-.282a.39.39 0 01.282-.105h1.434c.115 0 .21.039.282.11a.38.38 0 01.11.277v6.05c0 .114-.038.21-.11.281a.394.394 0 01-.282.11h-1.434a.381.381 0 01-.397-.396zm3.207-6.47c.048-.11.148-.168.296-.168h1.229a.94.94 0 01.52.158.856.856 0 01.345.405l1.754 3.994 1.75-3.994a.856.856 0 01.343-.405.94.94 0 01.521-.158h1.243c.148 0 .244.053.292.167a.256.256 0 01.023.148.618.618 0 01-.057.248l-2.777 5.898a.927.927 0 01-.363.405.943.943 0 01-.511.157h-.942a.917.917 0 01-.507-.157.945.945 0 01-.358-.405l-2.772-5.898a.608.608 0 01-.063-.248c0-.052.01-.1.034-.148zm9.836 6.068c-.66-.615-.989-1.512-.989-2.695 0-1.184.33-2.09.994-2.72.665-.63 1.582-.945 2.753-.945 1.18 0 2.103.315 2.758.94.66.625.99 1.527.99 2.7v.378a.391.391 0 01-.397.405h-4.832c.043.492.19.845.449 1.069.263.224.655.334 1.195.334.602 0 1.023-.143 1.257-.43a.926.926 0 01.736-.348h.956c.115 0 .21.038.287.12a.425.425 0 01.114.305c0 1.207-1.17 1.813-3.513 1.803-1.18.005-2.098-.3-2.758-.916zm1.267-3.392h2.983c-.043-1.011-.536-1.517-1.487-1.517-.951 0-1.448.506-1.496 1.517z" fill="url(#paint2_linear)"/></g><defs><linearGradient id="paint0_linear" x1="-4.124" y1="15.085" x2="69.585" y2="52.005" gradientUnits="userSpaceOnUse"><stop stop-color="#4089C3"/><stop offset="1" stop-color="#17ABE1"/></linearGradient><linearGradient id="paint1_linear" x1="3.35" y1=".165" x2="77.059" y2="37.085" gradientUnits="userSpaceOnUse"><stop stop-color="#4089C3"/><stop offset="1" stop-color="#17ABE1"/></linearGradient><linearGradient id="paint2_linear" x1="-7.347" y1="21.52" x2="66.362" y2="58.44" gradientUnits="userSpaceOnUse"><stop stop-color="#4089C3"/><stop offset="1" stop-color="#17ABE1"/></linearGradient><clipPath id="clip0"><path fill="#fff" d="M0 0h77v49H0z"/></clipPath></defs></svg>
